assets/icons/custom/contract.svg

<svg viewBox="0 0 16 16" xmlns="http://www.w3.org/2000/svg">
    <path d="M12.6667 2.00002H9.88C9.6 1.22669 8.86667 0.666687 8 0.666687C7.13333 0.666687 6.4 1.22669 6.12 2.00002H3.33333C2.6 2.00002 2 2.60002 2 3.33335V14C2 14.7334 2.6 15.3334 3.33333 15.3334H12.6667C13.4 15.3334 14 14.7334 14 14V3.33335C14 2.60002 13.4 2.00002 12.6667 2.00002ZM8 2.00002C8.36667 2.00002 8.66667 2.30002 8.66667 2.66669C8.66667 3.03335 8.36667 3.33335 8 3.33335C7.63333 3.33335 7.33333 3.03335 7.33333 2.66669C7.33333 2.30002 7.63333 2.00002 8 2.00002ZM12 14H4C3.63333 14 3.33333 13.7 3.33333 13.3334V4.00002C3.33333 3.63335 3.63333 3.33335 4 3.33335H4.66667V4.00002C4.66667 4.73335 5.26667 5.33335 6 5.33335H10C10.7333 5.33335 11.3333 4.73335 11.3333 4.00002V3.33335H12C12.3667 3.33335 12.6667 3.63335 12.6667 4.00002V13.3334C12.6667 13.7 12.3667 14 12 14Z" fill="inherit"/>
</svg>

<svg viewBox="0 0 16 16" xmlns="http://www.w3.org/2000/svg"><path d="M12.7 2H9.9A2 2 0 0 0 8 .7 2 2 0 0 0 6.1 2H3.3C2.6 2 2 2.6 2 3.3V14c0 .7.6 1.3 1.3 1.3h9.4c.7 0 1.3-.6 1.3-1.3V3.3c0-.7-.6-1.3-1.3-1.3ZM8 2c.4 0 .7.3.7.7 0 .3-.3.6-.7.6a.7.7 0 0 1-.7-.6c0-.4.3-.7.7-.7Zm4 12H4a.7.7 0 0 1-.7-.7V4c0-.4.3-.7.7-.7h.7V4c0 .7.6 1.3 1.3 1.3h4c.7 0 1.3-.6 1.3-1.3v-.7h.7c.4 0 .7.3.7.7v9.3c0 .4-.3.7-.7.7Z" fill="inherit"/></svg>
